X:1
T:Be Up and Doing
T:Be Up and Doing
T:D. Frank Garton
T:D. Frank Garton, 1893
T:Public Domain Courtesy of the Cyber Hymnal™
T:Public Domain Courtesy of the Cyber Hymnal™
C:D. Frank Garton
Z:Public Domain
Z:Courtesy of the Cyber Hymnal™
%%score ( 1 2 ) ( 3 4 )
L:1/8
Q:1/4=90
M:4/4
K:Bb
V:1 treble 
V:2 treble 
V:3 bass 
V:4 bass 
V:1
 [B,D][CE] | [DF][DF][^C=E][DF] [_EG][DF][B,D][DF] | [DB] [DB]3 z2 [FA][EG] | %3
w: 1.~O the|Lord has need of child- ren in His|ser- vice, He has|
w: 2.~There is|need of lit- tle sol- diers in the|bat- tle, For the|
w: 3.~There is|need of lit- tle work- ers in the|har- vest, For the|
 [DF][DF][^C=E][DF] [_EG][DF][A,=C][B,D] | [CE]6 [B,D][CE] | %5
w: some- thing for each lit- tle one to|do; He is|
w: hosts of sin are ris- ing in their|might; Then a-|
w: grain is ripe and rea- dy for the|yield; Then a-|
 [DF][DF][^C=E][DF] [_EG][DF][=CE][B,D] | [EG] [EG]3 z2 [FA][EG] | %7
w: call- ing for the faith- ful and the|will- ing, He is|
w: rise and join the val- iant lit- tle|ar- my, Wage a|
w: rise and join His band of lit- tle|work- ers, Go ye|
 [DF] [A,C]2 [B,D] ([CE][DF])[EG][EA] | [DB]6 ||"^Refrain" [DF][DB] | %10
w: call- ing for brave * hearts and|true.||
w: war- fare for good * and for|right.|Then be|
w: forth to the great * har- vest|field.||
 .[Ec]2 .[Ec]2 .[EF]2 [Fc][Fd] | [Ec] [DB]3 z2 [Fd]2 | [Fc]2 [FA][GB] [FA]2 G2 | F6 [DB][Ec] | %14
w: ||||
w: up, up, up, up and|do- ing, With|hearts ev- er brave and|true; Take your|
w: ||||
 [Fd]6 [Ec][Fd] | [Ge]6 [Ec][Ge] | [Fd]2 [DB][Fd] [Ec] !>![EF]2 [Ec] | B6 |] %18
w: ||||
w: place in the|race, Find the|work that is wait- ing for|you.|
w: ||||
V:2
 x2 | x8 | x8 | x8 | x8 | x8 | x8 | x8 | x6 || x2 | x8 | x8 | x6 (CC) | (C2 D2 E2) x2 | x8 | x8 | %16
 x8 | (D2 E2 D2) |] %18
V:3
 z2 | [B,,,B,,]4 [B,,,B,,]4 | B,,2 (D,F, [B,,B,]2) z2 | [B,,,B,,]4 B,,2 A,,G,, | %4
w: |~ ~|~ ~ * *|~ ~ ~ ~|
 (F,,2 A,,C, [F,,F,]2) z2 | [B,,,B,,]4 B,,2 C,D, | (E,2 E,,G,, [E,,E,]2) z2 | [F,,F,]4 [F,,F,]4 | %8
w: ~ * * *|~ ~ ~ ~|~ * * *|~ ~|
 (B,,2 D,F, [B,,,B,,]2) || z2 | .[F,A,]2 .[F,A,]2 .[F,C]2 [F,A,][F,A,] | %11
w: ~ * * *||~ ~ ~ ~ ~|
 [B,,B,] [B,,B,]3 z2 [B,,B,]2 | [F,A,]2 [F,C][F,C] [C,C]2 B,B, | A,2 B,2 C2 z2 | %14
w: ~ ~ ~|~ ~ ~ ~ ev- er|brave and true;|
 z2 [D,F,][C,E,] [B,,D,]2 z2 | z2 [E,G,][D,F,] [C,E,]2 [E,G,][E,B,] | %16
w: Take your place|in the race ~ ~|
 [F,B,]2 F,[F,B,] [F,A,] !>![F,A,]2 [F,A,] | B,2 G,2 F,2 |] %18
w: ~ ~ ~ ~ ~ ~|~ for you.|
V:4
 x2 | x8 | x8 | x8 | x8 | x8 | x8 | x8 | x6 || x2 | x8 | x8 | x6 C,2 | F,6 x2 | x8 | x8 | %16
 x2 F, x5 | B,,6 |] %18

